X:125
T:Twenty may play as well as One. JJo8.125
%%VWML:JohnsonVol8-2184-p63-0
F:http://www.vwml.org/record/JohnsonVol8/2184/p63
Z:Transcribed by Simon Furey and Lewis Jones
Z:vmp.Simon Wilson 2013 www.village-music-project.org.uk
Z:Dance added by John Chambers 2017
M:2/4
L:1/8
%Q:1/2=80
K:G
|: B |\
GB (d/e/f) | gdBG | ceAc | BGAF |\
GB (de/f/) | gdBG | ceAc | B2G :|
|: B |\
(g/f/e/f/) (g/f/e/f/) | gBgB | (g/f/e/f/) (g/f/e/f/) | aAaA |\
(g/f/e/f/) (g/f/e/f/) | gBdB | (c/A/c) (B/G/F) | G2G, :|
W: Cast off one Cu. and turn Partners .|
W:cast up again and turn ..| Hands 4
W:across .| back again ..| set across
W:and turn ..| Cross over and half
W:figure .| Right and Left ..|
W:
T:Derby Captain. JJo8.126
B:J.Johnson Choice Collection Vol 8 1758
Z:vmp.Simon Wilson 2013 www.village-music-project.org.uk
Z:Dance added by John Chambers 2017
M:9/8
L:1/8
%Q:3/8=120
K:Bb
|: B3 DEF GAB | cde deB AGF | B3 DEF GAB | cec AFA !fermata!B3 :|
|: f3 dBd gbg | =ece fcB AGF | d3 BdB GAB | AGF =ECE "_Da Capo"F3 :|
W: First Cu. cast off and turn, that
W:again below the 3d Cu. lead to
W:the top and cast off hands four
W:round at top :|.
W:
